!!!OTL: No_47_Ca'wûno'ga_Song_(b).krn
!!!REG: Great_Lakes
!!!LANG: Non-Tone
!!!LING_GROUP: Algonquin
!!!SOCIAL_FUNCTION: songs of war
**kern	**kern
*staff2	*staff1
*clefF4	*clefF4
*k[f#c#g#]	*k[f#c#g#]
*M3/4	*M3/4
4r	8.e\L
.	16e\Jk
=1	=1
8GG#/L	4e\
8GG#/J	.
8GG#/L	4c#\
8GG#/J	.
8GG#/L	8.c#\L
8GG#/J	.
.	[16e\Jk
=2	=2
2.r	8.e\L]
.	[16e\Jk
.	4e\]
.	8.c#\L
.	16c#\Jk
=3	=3
2.r	4c#\
.	4A\
.	8.A\L
.	[16B\Jk
=4	=4
2.r	8.B\L]
.	[16B\Jk
.	4B\]
.	8.c#\L
.	16c#\Jk
=5	=5
2.r	4c#\
.	4A\
.	8.A\L
.	[16A\Jk
=6	=6
2.r	8.A\L]
.	[16A\Jk
.	4A\]
.	8.A\L
.	16A\Jk
=7	=7
2.r	4A\
.	4F#\
.	8.F#\L
.	[16A\Jk
=8||	=8||
*M2/4	*M2/4
2r	8.A\L]
.	[16A\Jk
.	4A\]
=9	=9
2r	8c#\L
.	8B\J
.	8.A\L
.	[16B\Jk
=10	=10
2r	8.B\L]
.	[16B\Jk
.	4B;\]
=11	=11
2r	8c#\L
.	8B\J
.	8.A`\L
.	[16A\Jk
=12	=12
2r	8.A\L]
.	[16A\Jk
.	4A;\]
=13	=13
2r	8A\L
.	8A\J
.	8.F#`\L
.	[16A\Jk
=14	=14
2r	8.A\L]
.	16A\Jk
.	4A;\
=15	=15
2r	8B\L
.	8B\J
.	8.A`\L
.	[16A\Jk
=16	=16
2r	8.A\L]
.	[16A\Jk
.	4A\]
==	==
*-	*-
